X:122
T:School for Scandal THO4.122, A
M:C
L:1/8
Z:vmp. Peter Dunk 2010/11.from a transcription by Fynn Titford-Mock 2007
B:Thompson's Compleat Collection of 200 Favourite Country Dances Volume IV.
Q:1/4=150
K:G
GBGB GBGB|AGAB cBcA|BGBd GFED|edcB B2A2|GBGB GBGB|
AGAB cBcA|BGBd gdBG|AGAB G4::gfga gfed|e2e2e3 f|
gfga gfed|cBAG GFED|gfga gfed|e2e2e3 f|gfga gdBG|AGAB G4:|
